public/flags/SI.svg

<svg fill="none" height="53" viewBox="0 0 61 53" width="61" xmlns="http://www.w3.org/2000/svg" xmlns:xlink="http://www.w3.org/1999/xlink"><filter id="a" color-interpolation-filters="sRGB" filterUnits="userSpaceOnUse" height="14.1667" width="59" x="1" y="31.3333"><feFlood flood-opacity="0" result="BackgroundImageFix"/><feColorMatrix in="SourceAlpha" type="matrix" values="0 0 0 0 0 0 0 0 0 0 0 0 0 0 0 0 0 0 127 0"/><feOffset/><feColorMatrix type="matrix" values="0 0 0 0 0 0 0 0 0 0 0 0 0 0 0 0 0 0 0.06 0"/><feBlend in2="BackgroundImageFix" mode="normal" result="effect1_dropShadow"/><feBlend in="SourceGraphic" in2="effect1_dropShadow" mode="normal" result="shape"/></filter><mask id="b" height="43" maskUnits="userSpaceOnUse" width="59" x="1" y="3"><rect fill="#fff" height="41.4393" rx="3.7125" stroke="#fff" stroke-width="1.06071" width="57.9393" x="1.53036" y="3.53036"/></mask><rect fill="#fff" height="41.4393" rx="3.7125" stroke="#f5f5f5" stroke-width="1.06071" width="57.9393" x="1.53036" y="3.53036"/><g mask="url(#b)"><path clip-rule="evenodd" d="m1 31.3333h59v-14.1667h-39.5216v-2.8333s-1.9814-1.4167-4.026-1.4167c-2.0447 0-4.2143 1.4167-4.2143 1.4167v2.8333h-11.2381zm18.2619-11.3334c0 1.5648-1.2579 2.8333-2.8095 2.8333-1.5517 0-2.8095-1.2685-2.8095-2.8333s1.2578-2.8333 2.8095-2.8333c1.5516 0 2.8095 1.2685 2.8095 2.8333z" fill="#0c47b7" fill-rule="evenodd"/><g filter="url(#a)"><path clip-rule="evenodd" d="m1 45.5h59v-14.1667h-59z" fill="#e53b35" fill-rule="evenodd"/></g></g></svg>

<svg width="61" height="53" viewBox="0 0 61 53" fill="none" xmlns="http://www.w3.org/2000/svg">
<rect x="1.53036" y="3.53036" width="57.9393" height="41.4393" rx="3.7125" fill="white" stroke="#F5F5F5" stroke-width="1.06071"/>
<mask id="mask0" mask-type="alpha" maskUnits="userSpaceOnUse" x="1" y="3" width="59" height="43">
<rect x="1.53036" y="3.53036" width="57.9393" height="41.4393" rx="3.7125" fill="white" stroke="white" stroke-width="1.06071"/>
</mask>
<g mask="url(#mask0)">
<path fill-rule="evenodd" clip-rule="evenodd" d="M1 31.3333H60V17.1666H20.4784V14.3333C20.4784 14.3333 18.497 12.9166 16.4524 12.9166C14.4077 12.9166 12.2381 14.3333 12.2381 14.3333V17.1666H1V31.3333ZM19.2619 19.9999C19.2619 21.5647 18.004 22.8332 16.4524 22.8332C14.9007 22.8332 13.6429 21.5647 13.6429 19.9999C13.6429 18.4351 14.9007 17.1666 16.4524 17.1666C18.004 17.1666 19.2619 18.4351 19.2619 19.9999Z" fill="#0C47B7"/>
<g filter="url(#filter0_d)">
<path fill-rule="evenodd" clip-rule="evenodd" d="M1 45.5H60V31.3333H1V45.5Z" fill="#E53B35"/>
</g>
</g>
<defs>
<filter id="filter0_d" x="1" y="31.3333" width="59" height="14.1667" filterUnits="userSpaceOnUse" color-interpolation-filters="sRGB">
<feFlood flood-opacity="0" result="BackgroundImageFix"/>
<feColorMatrix in="SourceAlpha" type="matrix" values="0 0 0 0 0 0 0 0 0 0 0 0 0 0 0 0 0 0 127 0"/>
<feOffset/>
<feColorMatrix type="matrix" values="0 0 0 0 0 0 0 0 0 0 0 0 0 0 0 0 0 0 0.06 0"/>
<feBlend mode="normal" in2="BackgroundImageFix" result="effect1_dropShadow"/>
<feBlend mode="normal" in="SourceGraphic" in2="effect1_dropShadow" result="shape"/>
</filter>
</defs>
</svg>
